X: 21
T: The Groves of Blackpool
M: 6/8
L: 1/8
B: "O'Neill's 21"
N: "Moderate" "collected by F. O'Neill"
Z: "Transcribed by Norbert Paap, norbertp@bdu.uva.nl"
K:Cm
c|BAG GAF|E C3zD|EFG GAB|c3-c2 c|
BAG GAF|E C3zD|EFG FED|C3-C2||
c/2-d/2|ede fdc|B G3zG|cde fde|f3-f2 f|
efg gfed|e c3zc|BAG FGB|c3-c2||
